X: 17842
T: Horizonto
R: jig
M: 6/8
K: Dminor
ABA GAF|GEF DEC|A,2A, DEF|E2E CDE|
F3 FGF|E2E CDE|F2E2C2|A,=B,^C D3:|
B,2B, DEF|B,2B, DEF|A,2A, DEF|A,2A, DEF|
B,2B, DEF|B,2B, DEF|ABA GAF|GEF DEC|

